32x32/actions/mail-meeting-request-reply.svg

<svg xmlns="http://www.w3.org/2000/svg" viewBox="0 0 32 32">
  <defs id="defs3051">
    <style type="text/css" id="current-color-scheme">
      .ColorScheme-Text {
        color:#555e70;
      }
      </style>
  </defs>
 <path 
     style="fill:currentColor;fill-opacity:1;stroke:none" 
     d="M 2,5 2,24.683594 2,27 19,27 19,26 3,26 3,25.111328 3.4296875,24.683594 12.785156,15.541016 16,18.683594 19.214844,15.541016 21,17.285156 21,15.888672 19.929688,14.841797 28.976562,6 29,6 l 0,8 1,0 0,-9 z M 3,6 3.0234375,6 12.070312,14.841797 3,23.707031 Z M 4.453125,6 27.546875,6 16,17.285156 Z"
     class="ColorScheme-Text"
     />
    <path
     style="fill:#fdbc4b;fill-opacity:1;stroke:none"
     d="M 24 15 L 24 23 L 26 23 L 26 15 L 24 15 z M 24 25 L 24 27 L 26 27 L 26 25 L 24 25 z "
     />
</svg>

<svg xmlns="http://www.w3.org/2000/svg" viewBox="0 0 32 32"><path style="fill:currentColor;fill-opacity:1;stroke:none;color:#555e70" d="M2 5v22h17v-1H3v-.889l.43-.427 9.355-9.143L16 18.684l3.215-3.143L21 17.285V15.89l-1.07-1.047L28.977 6H29v8h1V5zm1 1h.023l9.047 8.842L3 23.707zm1.453 0h23.094L16 17.285z"/><path style="fill:#fdbc4b;fill-opacity:1;stroke:none" d="M24 15v8h2v-8h-2zm0 10v2h2v-2h-2z"/></svg>
